X: 2
T: The Longford Tinker
R: reel
M: 4/4
L: 1/8
K: Bmin
dBBA ~B2FB|dBBA ~f3e|dBBA ~B2FB|ABde ~f3ef|dBBA FB~B2|dzBB ~f3g|az~A2 ABFB|ABde ~f3e||d2fd edfe|d2fd gffe|d2fd efgb|faaf gfef|d2fd edfe|d2fd ~g3a|b2gf gfed|faaf gfed||fa~a2 fz~a2|faaf gfed|gbba ~b3z|gbaf gfed|fa~a2 fz~a2|faaf ~g3a|b2af gfed|faaf gfef||


Tune 369	Setting 13177

